resources/svg/x-o.svg

<svg xmlns="http://www.w3.org/2000/svg" data-name="Layer 1" viewBox="0 0 24 24" fill="currentColor" stroke="none"><path d="M8 19a3 3 0 0 1-3-3V8a3 3 0 0 1 3-3 1 1 0 0 0 0-2 5 5 0 0 0-5 5v8a5 5 0 0 0 5 5 1 1 0 0 0 0-2Zm7.71-3.29a1 1 0 0 0 0-1.42L13.41 12l2.3-2.29a1 1 0 0 0-1.42-1.42L12 10.59l-2.29-2.3a1 1 0 0 0-1.42 1.42l2.3 2.29-2.3 2.29a1 1 0 0 0 0 1.42 1 1 0 0 0 1.42 0l2.29-2.3 2.29 2.3a1 1 0 0 0 1.42 0ZM16 3a1 1 0 0 0 0 2 3 3 0 0 1 3 3v8a3 3 0 0 1-3 3 1 1 0 0 0 0 2 5 5 0 0 0 5-5V8a5 5 0 0 0-5-5Z"/></svg>

<svg xmlns="http://www.w3.org/2000/svg" data-name="Layer 1" viewBox="0 0 24 24" fill="currentColor" stroke="none"><path d="M8,19a3,3,0,0,1-3-3V8A3,3,0,0,1,8,5,1,1,0,0,0,8,3,5,5,0,0,0,3,8v8a5,5,0,0,0,5,5,1,1,0,0,0,0-2Zm7.71-3.29a1,1,0,0,0,0-1.42L13.41,12l2.3-2.29a1,1,0,0,0-1.42-1.42L12,10.59,9.71,8.29A1,1,0,0,0,8.29,9.71L10.59,12l-2.3,2.29a1,1,0,0,0,0,1.42,1,1,0,0,0,1.42,0L12,13.41l2.29,2.3a1,1,0,0,0,1.42,0ZM16,3a1,1,0,0,0,0,2,3,3,0,0,1,3,3v8a3,3,0,0,1-3,3,1,1,0,0,0,0,2,5,5,0,0,0,5-5V8A5,5,0,0,0,16,3Z"/></svg>
